X:1
T:Title
%%score { ( 1 3 ) | 2 }
L:1/8
M:4/4
K:Ab
V:1 treble nm="Grand Piano"
V:3 treble 
V:2 bass 
V:1
 z4 z2[Q:1/4=92] [CE]>[CE] | [CA]>[CG] [CA]>[DB] [CA]>[CE] [CA]>[DB] | %2
 [Ec]>[=D_c] [E=c]>[Fd] [Ec]2 E>E | F>=E F>G [=DA]>F G>A | z4 B2[K:bass] z2[K:treble] | %5
 [CA]>[CG] [CA]>[DB] [CA]>[CE] [CA]>[DB] | [Ec]>[=D_c] [E=c]>[Fd] [Ec]2 c>d | e>d c>d e e2 A | %8
[M:7/8] [Ac]>[Ac][DGB]>[DEB] [CEA]3 |[M:1/4] c>d |[M:4/4] e>d c>d e<e c>B | %11
 [FA]>[EG] [DF]>[EG] [FA]2 [EG]>[DF] |[M:3/4] [CE]>[CE] [EA]>B c<c |[M:1/4] c>c | %14
[M:3/4] d>c B>A B2 |[M:1/4] c>d |[M:4/4] e>d c>d e<e c>B | [FA]>[EG] [DF]>[EG] [FA]2 [EG]>[DF] | %18
[M:3/4] [CE]>[CE] [EA]>B c<c |[M:3/8] [Fd]3 |[M:3/4] c>c B>B [CA]2 |] %21
V:2
 z4 z2 [A,,A,]>[A,,A,] | [A,,E,]>[A,,E,] [A,,E,]>[A,,E,] [A,,E,]>[A,,A,] [A,,E,]>[A,,E,] | %2
 [A,,A,]>[A,,A,] [A,,A,]>[A,,A,] [A,,A,]2 [C,A,]>[C,A,] | %3
 [D,A,D]>[D,G,D] [D,A,D]>[D,B,D] [B,,B,]>[A,B,=D] [G,B,D]>[F,B,D] | %4
 [E,G,E]>[E,_G,E] [E,=G,E]>[E,A,E] [E,G,E]2 [C,A,]>[B,,G,] | %5
 [A,,A,]>[A,,E,] [A,,E,]>[A,,E,] [A,,E,]>[A,,A,] [A,,E,]>[A,,E,] | %6
 [A,,A,]>[A,,A,] [A,,A,]>[A,,A,] [A,,A,]2[K:treble] [A,E]>[A,B,E] | %7
 [A,CA]>[A,B,E] [A,E]>[A,B,E] [A,CA] [A,CA]2[K:bass] [A,C] |[M:7/8] [E,E]>[E,E]E,>E, A,,3 | %9
[M:1/4] [A,E]>[A,B,E] |[M:4/4] [A,CE]>[A,B,E] [A,E]>[A,B,E] [A,CE]<[A,CE] [A,E]>[A,=E] | %11
 [D,D]>[D,D] [D,A,]>[D,A,] [D,D]2 [D,D]>[D,A,] | %12
[M:3/4] [A,,A,]>[A,,A,] [C,A,]>[E,G,E][K:treble] [A,E]<[A,E] |[M:1/4] [A,EA]>[A,EA] | %14
[M:3/4] [B,EG]>[A,EA][K:bass] [G,E]>[F,B,=D] [E,G,E]2 |[M:1/4] [A,E]>[A,B,E] | %16
[M:4/4] [A,CE]>[A,B,E] [A,E]>[A,B,E] [A,CE]<[A,CE] [A,E]>[A,=E] | %17
 [D,D]>[D,D] [D,A,]>[D,A,] [D,D]2 [D,D]>[D,A,] | %18
[M:3/4] [A,,A,]>[A,,A,] [C,A,]>[E,G,E] [A,E]<[A,E] |[M:3/8] [D,A,]3 | %20
[M:3/4] [E,A,E]>[E,A,E] [E,G,D]>[E,G,D] [A,,E,A,]2 |] %21
V:3
 x8 | x8 | x8 | x8 | B>=A B>c z z/[K:bass] D,/ E>[K:treble][DE] | x8 | x8 | x8 |[M:7/8] x7 | %9
[M:1/4] x2 |[M:4/4] x8 | x8 |[M:3/4] x6 |[M:1/4] x2 |[M:3/4] x6 |[M:1/4] x2 |[M:4/4] x8 | x8 | %18
[M:3/4] x6 |[M:3/8] x3 |[M:3/4] x6 |] %21

